X:2
T:The Road to Glountane
C:"Cuz" Teehan
R:highland
M:C|
L:1/8
K:A
E2EF A2AB|ceec BAF2|(3faf ec ABBA|ecBA FBAF|
E2EF A2AB|ceec BAF2|(3faf ec ABBA|1 ecBc A2AF:|2 ecBc A2af||
|:ecef a3f|ecBA FAAB|cBBA cBBA|cABA FAaf|
ecef a3f|ecBA FAAB|cBBA cBBA|1 ceBc A2af:|2 ceBc A2AF||

                       

ROAD TO GLENLOUGH. AKA and see “Limerick Lasses [2]."

                       

ROAD TO HOLLYHILL, THE (An Botar Go Cnoc-Cuileann). Irish, Slow Air (3/4 time). A Mixolydian. Standard. AB. O'Neill (Music of Ireland: 1850 Melodies), 1903/1979; No. 347, pg. 60.

